X:203
T:Lost in the Loop
Z: id:dc-reel-390
M:C
L:1/8
K:D Dorian
z|CDEF DA,A,F|EFGA FDD^F|GABc dcBc|dGcG BAGA,|!
CDEF DA,A,F|EFGA FDD^F|GABc d2GF|DA,CD FDD:|!
A|dDDc BGG2|ADDF ECED|dDcD BAGA,|CDEF DA,A,A|!
dDDc BGG2|ADDF ECE2|GABc d2GF|DA,CD FDD:|!
A|d3d ^gadc|d2dc AGAc|dGGd GGdG|CDEF DA,A,A|!
d3d ^gadc|d2dc AGAc|dDcD GABc|dDcD A,DF:|!
"Coda (to replace last 2 measures)"decA G2GB|cBcC A,2Ac|decA G2GB|cBcC A,DD2|D4|]!

